src/assets/svg/icon-plus.svg

<svg viewBox="0 0 10 10" fill="none" xmlns="http://www.w3.org/2000/svg">
  <path
    d="M6.29017 10V6.29017H10V3.70983H6.29017V0H3.70983V3.70983H0V6.29017H3.70983V10H6.29017Z"
    fill="currentColor"
  />
</svg>

<svg width="11" height="11" xmlns="http://www.w3.org/2000/svg"><path d="M6.313 10.023v-3.71h3.71v-2.58h-3.71V.023h-2.58v3.71H.023v2.58h3.71v3.71z" fill="#7C5DFA" fill-rule="nonzero"/></svg>
